Origami/48x48/apps/widelands.svg

<svg width="48" height="48" version="1.1" xmlns="http://www.w3.org/2000/svg">
 <path d="m21.939453 10.942959a4.0004 4.0004 0 0 0 -3.939453 4.056641v26a4.0004 4.0004 0 0 0 4 4h18a4.0004 4.0004 0 1 0 0 -8h-14v-22a4.0004 4.0004 0 0 0 -4.060547 -4.056641z" style="fill-rule:evenodd;opacity:.2"/>
 <path d="m7.9394531 4.9440683a4.0004 4.0004 0 0 0 -3.9394531 4.0566406v24a4.0004 4.0004 0 0 0 5.984375 3.472656l12.015625-6.865234 12.015625 6.865234a4.0004 4.0004 0 0 0 5.984375 -3.472656v-24a4.0004 4.0004 0 1 0 -8 0v17.107422l-8.015625-4.580078a4.0004 4.0004 0 0 0 -3.96875 0l-8.015625 4.580078v-17.107422a4.0004 4.0004 0 0 0 -4.0605469 -4.0566406z" style="opacity:.2"/>
 <path d="m8 8v24l14-8 14 8v-24" style="fill:none;stroke-linecap:round;stroke-linejoin:round;stroke-width:8;stroke:#508d4c"/>
 <path d="m7.9394531 3.9433594a4.0004 4.0004 0 0 0 -3.9394531 4.0566406v1a4.0004 4.0004 0 0 1 3.9394531 -4.0566406 4.0004 4.0004 0 0 1 4.0605469 4.0566406v-1a4.0004 4.0004 0 0 0 -4.0605469 -4.0566406zm28 0a4.0004 4.0004 0 0 0 -3.939453 4.0566406v1a4.0004 4.0004 0 1 1 8 0v-1a4.0004 4.0004 0 0 0 -4.060547 -4.0566406zm-13.863281 16.058594a4.0004 4.0004 0 0 0 -2.060547 0.525391l-8.015625 4.580078v1l8.015625-4.580078a4.0004 4.0004 0 0 1 3.96875 0l8.015625 4.580078v-1l-8.015625-4.580078a4.0004 4.0004 0 0 0 -1.908203 -0.525391z" style="fill:#ffffff;opacity:.2"/>
 <path d="m22.0004 14v25.9996h18" style="fill:none;stroke-linecap:round;stroke-linejoin:round;stroke-width:8;stroke:#ff6f57"/>
 <path d="M 21.939453,9.9433594 A 4.0004,4.0004 0 0 0 18,14 l 0,1 A 4.0004,4.0004 0 0 1 21.939453,10.943359 4.0004,4.0004 0 0 1 26,15 l 0,-1 A 4.0004,4.0004 0 0 0 21.939453,9.9433594 Z M 26,36 l 0,1 14,0 A 4.0004,4.0004 0 0 1 44.021484,40.488281 4.0004,4.0004 0 0 0 40,36 l -14,0 z" style="fill-rule:evenodd;fill:#ffffff;opacity:.2"/>
</svg>

<svg xmlns="http://www.w3.org/2000/svg" width="48" height="48" version="1.1">
 <path style="opacity:0.2;fill-rule:evenodd" d="M 21.939453,10.942959 A 4.0004,4.0004 0 0 0 18,14.9996 l 0,26 a 4.0004,4.0004 0 0 0 4,4 l 18,0 a 4.0004,4.0004 0 1 0 0,-8 l -14,0 0,-22 a 4.0004,4.0004 0 0 0 -4.060547,-4.056641 z"/>
 <path style="opacity:0.2" d="M 7.9394531,4.9440683 A 4.0004,4.0004 0 0 0 4,9.0007089 L 4,33.000709 a 4.0004,4.0004 0 0 0 5.984375,3.472656 L 22,29.608131 34.015625,36.473365 A 4.0004,4.0004 0 0 0 40,33.000709 L 40,9.0007089 a 4.0004,4.0004 0 1 0 -8,0 l 0,17.1074221 -8.015625,-4.580078 a 4.0004,4.0004 0 0 0 -3.96875,0 L 12,26.108131 12,9.0007089 A 4.0004,4.0004 0 0 0 7.9394531,4.9440683 Z"/>
 <path style="fill:none;stroke:#508d4c;stroke-width:8;stroke-linecap:round;stroke-linejoin:round" d="M 8,8 8,32 22,24 36,32 36,8"/>
 <path style="opacity:0.2;fill:#ffffff" d="M 7.9394531,3.9433594 A 4.0004,4.0004 0 0 0 4,8 L 4,9 A 4.0004,4.0004 0 0 1 7.9394531,4.9433594 4.0004,4.0004 0 0 1 12,9 L 12,8 A 4.0004,4.0004 0 0 0 7.9394531,3.9433594 Z m 27.9999999,0 A 4.0004,4.0004 0 0 0 32,8 l 0,1 a 4.0004,4.0004 0 1 1 8,0 L 40,8 A 4.0004,4.0004 0 0 0 35.939453,3.9433594 Z M 22.076172,20.001953 a 4.0004,4.0004 0 0 0 -2.060547,0.525391 L 12,25.107422 l 0,1 8.015625,-4.580078 a 4.0004,4.0004 0 0 1 3.96875,0 L 32,26.107422 l 0,-1 -8.015625,-4.580078 a 4.0004,4.0004 0 0 0 -1.908203,-0.525391 z"/>
 <path style="fill:none;stroke:#ff6f57;stroke-width:8;stroke-linecap:round;stroke-linejoin:round" d="m 22.0004,14 0,25.9996 18,0"/>
 <path style="opacity:0.2;fill:#ffffff;fill-rule:evenodd" d="M 21.939453,9.9433594 A 4.0004,4.0004 0 0 0 18,14 l 0,1 A 4.0004,4.0004 0 0 1 21.939453,10.943359 4.0004,4.0004 0 0 1 26,15 l 0,-1 A 4.0004,4.0004 0 0 0 21.939453,9.9433594 Z M 26,36 l 0,1 14,0 A 4.0004,4.0004 0 0 1 44.021484,40.488281 4.0004,4.0004 0 0 0 40,36 l -14,0 z"/>
</svg>
